Numix-GalliumOS/32/devices/pda.svg

<?xml version="1.0" encoding="UTF-8" standalone="no"?>
<svg
   xmlns:dc="http://purl.org/dc/elements/1.1/"
   xmlns:cc="http://creativecommons.org/ns#"
   xmlns:rdf="http://www.w3.org/1999/02/22-rdf-syntax-ns#"
   xmlns:svg="http://www.w3.org/2000/svg"
   xmlns="http://www.w3.org/2000/svg"
   xmlns:sodipodi="http://sodipodi.sourceforge.net/DTD/sodipodi-0.dtd"
   xmlns:inkscape="http://www.inkscape.org/namespaces/inkscape"
   width="32"
   height="32"
   viewBox="0 0 32 32"
   id="svg3326"
   version="1.1"
   inkscape:version="0.91 r"
   sodipodi:docname="pda.svg">
  <metadata
     id="metadata3334">
    <rdf:RDF>
      <cc:Work
         rdf:about="">
        <dc:format>image/svg+xml</dc:format>
        <dc:type
           rdf:resource="http://purl.org/dc/dcmitype/StillImage" />
      </cc:Work>
    </rdf:RDF>
  </metadata>
  <defs
     id="defs3332" />
  <sodipodi:namedview
     pagecolor="#ffffff"
     bordercolor="#666666"
     borderopacity="1"
     objecttolerance="10"
     gridtolerance="10"
     guidetolerance="10"
     inkscape:pageopacity="0"
     inkscape:pageshadow="2"
     inkscape:window-width="1920"
     inkscape:window-height="1056"
     id="namedview3330"
     showgrid="true"
     inkscape:zoom="29.5"
     inkscape:cx="16.732973"
     inkscape:cy="14.470877"
     inkscape:window-x="0"
     inkscape:window-y="24"
     inkscape:window-maximized="1"
     inkscape:current-layer="svg3326">
    <inkscape:grid
       type="xygrid"
       id="grid4133" />
  </sodipodi:namedview>
  <rect
     style="opacity:1;fill:#5aa9e1;fill-opacity:1;fill-rule:nonzero;stroke:none;stroke-width:0.30000001;stroke-linecap:round;stroke-linejoin:miter;stroke-miterlimit:4;stroke-dasharray:none;stroke-dashoffset:0;stroke-opacity:1"
     id="rect4166"
     width="14.545455"
     height="16"
     x="8.727273"
     y="5.4544988" />
  <rect
     style="opacity:1;fill:#a9aeb7;fill-opacity:1;fill-rule:nonzero;stroke:none;stroke-width:0.30000001;stroke-linecap:round;stroke-linejoin:miter;stroke-miterlimit:4;stroke-dasharray:none;stroke-dashoffset:0;stroke-opacity:1"
     id="rect4157"
     width="14.545455"
     height="5.8181815"
     x="8.727273"
     y="21.090862"
     rx="0.99999994"
     ry="0.99999994" />
  <path
     style="fill:#fdf6e3;fill-opacity:0.18823529;fill-rule:evenodd;stroke:none;stroke-width:1px;stroke-linecap:butt;stroke-linejoin:miter;stroke-opacity:1"
     d="m 20.363636,5.4544985 -9.454545,16.0000005 12.363636,0 0,-16.0000005 z"
     id="path4168"
     inkscape:connector-curvature="0" />
  <g
     transform="matrix(0.72727273,0,0,0.72727273,-1.4545455,-731.53615)"
     id="g3038"
     style="fill:#073642;fill-opacity:1">
    <path
       style="color:#000000;line-height:normal;fill:#073642;fill-opacity:1"
       d="M 9.0917969 4 C 8.5000129 4 8 4.4980609 8 5.0898438 L 8 26.181641 C 8 26.231822 8.0544491 26.673459 8.2949219 26.931641 C 8.5353931 27.189895 8.8628012 27.358036 9.3417969 27.5 C 10.299787 27.783927 11.968504 28 15.273438 28 L 16.726562 28 C 19.671885 28 21.348743 27.770618 22.363281 27.5 C 22.87055 27.364655 23.214327 27.22594 23.476562 27.044922 C 23.738808 26.863904 24 26.669568 24 26.181641 L 24 5.0898438 C 24 4.4980609 23.499987 4 22.908203 4 L 9.0917969 4 z M 10 6 L 22 6 L 22 20 L 10 20 L 10 6 z M 10.25 21.5 A 0.75 0.75 0 0 1 11 22.25 A 0.75 0.75 0 0 1 10.25 23 A 0.75 0.75 0 0 1 9.5 22.25 A 0.75 0.75 0 0 1 10.25 21.5 z M 12.25 21.5 A 0.75 0.75 0 0 1 13 22.25 A 0.75 0.75 0 0 1 12.25 23 A 0.75 0.75 0 0 1 11.5 22.25 A 0.75 0.75 0 0 1 12.25 21.5 z M 14.25 21.5 A 0.75 0.75 0 0 1 15 22.25 A 0.75 0.75 0 0 1 14.25 23 A 0.75 0.75 0 0 1 13.5 22.25 A 0.75 0.75 0 0 1 14.25 21.5 z M 17.75 21.5 A 0.75 0.75 0 0 1 18.5 22.25 A 0.75 0.75 0 0 1 17.75 23 A 0.75 0.75 0 0 1 17 22.25 A 0.75 0.75 0 0 1 17.75 21.5 z M 19.75 21.5 A 0.75 0.75 0 0 1 20.5 22.25 A 0.75 0.75 0 0 1 19.75 23 A 0.75 0.75 0 0 1 19 22.25 A 0.75 0.75 0 0 1 19.75 21.5 z M 21.75 21.5 A 0.75 0.75 0 0 1 22.5 22.25 A 0.75 0.75 0 0 1 21.75 23 A 0.75 0.75 0 0 1 21 22.25 A 0.75 0.75 0 0 1 21.75 21.5 z M 10.25 23.5 A 0.75 0.75 0 0 1 11 24.25 A 0.75 0.75 0 0 1 10.25 25 A 0.75 0.75 0 0 1 9.5 24.25 A 0.75 0.75 0 0 1 10.25 23.5 z M 12.25 23.5 A 0.75 0.75 0 0 1 13 24.25 A 0.75 0.75 0 0 1 12.25 25 A 0.75 0.75 0 0 1 11.5 24.25 A 0.75 0.75 0 0 1 12.25 23.5 z M 16 23.5 A 1.5 1.5 0 0 1 17.5 25 A 1.5 1.5 0 0 1 16 26.5 A 1.5 1.5 0 0 1 14.5 25 A 1.5 1.5 0 0 1 16 23.5 z M 19.75 23.5 A 0.75 0.75 0 0 1 20.5 24.25 A 0.75 0.75 0 0 1 19.75 25 A 0.75 0.75 0 0 1 19 24.25 A 0.75 0.75 0 0 1 19.75 23.5 z M 21.75 23.5 A 0.75 0.75 0 0 1 22.5 24.25 A 0.75 0.75 0 0 1 21.75 25 A 0.75 0.75 0 0 1 21 24.25 A 0.75 0.75 0 0 1 21.75 23.5 z "
       transform="matrix(1.375,0,0,1.375,2.0000001,1005.8622)"
       id="path3040" />
  </g>
  <path
     style="fill:#eee8d5;fill-opacity:0.1485944;stroke:none"
     d="m 22,4 -2,0 0,23.869141 2,-0.291016 z"
     id="rect3767-3"
     inkscape:connector-curvature="0"
     sodipodi:nodetypes="ccccc" />
  <g
     style="fill:#073642;fill-opacity:1"
     id="g4204"
     transform="matrix(0.72727273,0,0,0.72727273,-1.4545455,-731.53615)" />
</svg>

<svg xmlns="http://www.w3.org/2000/svg" viewBox="0 0 32 32">
 <rect width="14.545" height="16" x="8.727" y="5.454" style="fill:#5aa9e1;opacity:1;fill-opacity:1;stroke:none;fill-rule:nonzero"/>
 <rect width="14.545" height="5.818" x="8.727" y="21.09" rx="1" style="fill:#a9aeb7;opacity:1;fill-opacity:1;stroke:none;fill-rule:nonzero"/>
 <path d="m 20.364 5.454 -9.455 16 12.364 0 0 -16 z" style="fill:#fdf6e3;fill-opacity:0.188;stroke:none;fill-rule:evenodd"/>
 <g transform="matrix(0.72727273,0,0,0.72727273,-1.4545455,-731.53615)" style="fill:#073642;fill-opacity:1">
  <path d="m 9.09 4 c -0.592 0 -1.092 0.498 -1.092 1.09 l 0 21.09 c 0 0.05 0.054 0.492 0.295 0.75 c 0.24 0.258 0.568 0.426 1.047 0.568 c 0.958 0.284 2.627 0.5 5.932 0.5 l 1.453 0 c 2.945 0 4.622 -0.229 5.637 -0.5 c 0.507 -0.135 0.851 -0.274 1.113 -0.455 c 0.262 -0.181 0.523 -0.375 0.523 -0.863 l 0 -21.09 c 0 -0.592 -0.5 -1.09 -1.092 -1.09 l -13.816 0 z m 0.908 2 l 12 0 l 0 14 l -12 0 l 0 -14 z m 0.25 15.5 a 0.75 0.75 0 0 1 0.75 0.75 a 0.75 0.75 0 0 1 -0.75 0.75 a 0.75 0.75 0 0 1 -0.75 -0.75 a 0.75 0.75 0 0 1 0.75 -0.75 z m 2 0 a 0.75 0.75 0 0 1 0.75 0.75 a 0.75 0.75 0 0 1 -0.75 0.75 a 0.75 0.75 0 0 1 -0.75 -0.75 a 0.75 0.75 0 0 1 0.75 -0.75 z m 2 0 a 0.75 0.75 0 0 1 0.75 0.75 a 0.75 0.75 0 0 1 -0.75 0.75 a 0.75 0.75 0 0 1 -0.75 -0.75 a 0.75 0.75 0 0 1 0.75 -0.75 z m 3.5 0 a 0.75 0.75 0 0 1 0.75 0.75 a 0.75 0.75 0 0 1 -0.75 0.75 a 0.75 0.75 0 0 1 -0.75 -0.75 a 0.75 0.75 0 0 1 0.75 -0.75 z m 2 0 a 0.75 0.75 0 0 1 0.75 0.75 a 0.75 0.75 0 0 1 -0.75 0.75 a 0.75 0.75 0 0 1 -0.75 -0.75 a 0.75 0.75 0 0 1 0.75 -0.75 z m 2 0 a 0.75 0.75 0 0 1 0.75 0.75 a 0.75 0.75 0 0 1 -0.75 0.75 a 0.75 0.75 0 0 1 -0.75 -0.75 a 0.75 0.75 0 0 1 0.75 -0.75 z m -11.5 2 a 0.75 0.75 0 0 1 0.75 0.75 a 0.75 0.75 0 0 1 -0.75 0.75 a 0.75 0.75 0 0 1 -0.75 -0.75 a 0.75 0.75 0 0 1 0.75 -0.75 z m 2 0 a 0.75 0.75 0 0 1 0.75 0.75 a 0.75 0.75 0 0 1 -0.75 0.75 a 0.75 0.75 0 0 1 -0.75 -0.75 a 0.75 0.75 0 0 1 0.75 -0.75 z m 3.75 0 a 1.5 1.5 0 0 1 1.5 1.5 a 1.5 1.5 0 0 1 -1.5 1.5 a 1.5 1.5 0 0 1 -1.5 -1.5 a 1.5 1.5 0 0 1 1.5 -1.5 z m 3.75 0 a 0.75 0.75 0 0 1 0.75 0.75 a 0.75 0.75 0 0 1 -0.75 0.75 a 0.75 0.75 0 0 1 -0.75 -0.75 a 0.75 0.75 0 0 1 0.75 -0.75 z m 2 0 a 0.75 0.75 0 0 1 0.75 0.75 a 0.75 0.75 0 0 1 -0.75 0.75 a 0.75 0.75 0 0 1 -0.75 -0.75 a 0.75 0.75 0 0 1 0.75 -0.75 z" transform="matrix(1.375,0,0,1.375,2.0000001,1005.8622)" style="color:#000"/>
 </g>
 <path d="m 22 4 -2 0 0 23.869 2 -0.291 z" style="fill:#eee8d5;fill-opacity:0.149;stroke:none"/>
</svg>
